src/components/common/AdvancedFilter/icons/housing.svg

<svg xmlns="http://www.w3.org/2000/svg" viewBox="0 0 64 80"><g fill="#fff"><path d="M62 39a1 1 0 00-1-1h-4V18a.541.541 0 00-.012-.058.929.929 0 00-.056-.277.828.828 0 00-.046-.106.967.967 0 00-.136-.2.733.733 0 00-.073-.084c-.012-.011-.019-.026-.031-.036L44 6.536V3a1 1 0 00-1-1h-6a1 1 0 00-1 1v3H21a.99.99 0 00-.322.056c-.029.01-.054.029-.083.041a1 1 0 00-.2.119c-.011.009-.025.012-.036.021l-13 11A1 1 0 007 18v20H3a1 1 0 00-1 1 9.014 9.014 0 006.4 8.613 4.247 4.247 0 00-1.4 3.15v.217a4.246 4.246 0 002.359 3.82l11.66 5.829A13.063 13.063 0 0026.833 62H61a1 1 0 001-1V47a1 1 0 00-1-1h-2.356A8.983 8.983 0 0062 39zM35 19h20v19H35zm3-15h4v6h-4zm-2 4v3a1 1 0 001 1h6a1 1 0 001-1V9.156L53.27 17h-18.9L23.73 8zM9 18.464L21 8.31l12 10.154V38h-7V25a1 1 0 00-1-1h-8a1 1 0 00-1 1v13H9zM24 38h-6V26h6zm-1.861 13.048L15.485 48h7.071a3.922 3.922 0 00-.417 3.048zm-.225 7.79l-11.66-5.829A2.255 2.255 0 019 50.98v-.217a2.264 2.264 0 013.212-2.063l11.371 5.208A1 1 0 0024 54h10a1 1 0 000-2h-8a2 2 0 010-4h7.667a1 1 0 00.478-.122l.256-.139A13.343 13.343 0 0147 47.594V60H26.833a11.033 11.033 0 01-4.919-1.162zM60 48v12H49V48zm-11.753-2a15.328 15.328 0 00-14.8-.018L26 46H11a7.011 7.011 0 01-6.929-6h55.858A7.011 7.011 0 0153 46z"/><path d="M51 56h2v2h-2zm-1-32H40a1 1 0 00-1 1v6a1 1 0 001 1h10a1 1 0 001-1v-6a1 1 0 00-1-1zm-1 6h-8v-4h8z"/></g></svg>

<svg xmlns="http://www.w3.org/2000/svg" viewBox="0 0 64 80" x="0px" y="0px"><g><path d="M62,39a1,1,0,0,0-1-1H57V18a.541.541,0,0,0-.012-.058.929.929,0,0,0-.056-.277.828.828,0,0,0-.046-.106.967.967,0,0,0-.136-.2.733.733,0,0,0-.073-.084c-.012-.011-.019-.026-.031-.036L44,6.536V3a1,1,0,0,0-1-1H37a1,1,0,0,0-1,1V6H21a.99.99,0,0,0-.322.056c-.029.01-.054.029-.083.041a1,1,0,0,0-.2.119c-.011.009-.025.012-.036.021l-13,11A1,1,0,0,0,7,18V38H3a1,1,0,0,0-1,1,9.014,9.014,0,0,0,6.4,8.613A4.247,4.247,0,0,0,7,50.763v.217A4.246,4.246,0,0,0,9.359,54.8l11.66,5.829A13.063,13.063,0,0,0,26.833,62H61a1,1,0,0,0,1-1V47a1,1,0,0,0-1-1H58.644A8.983,8.983,0,0,0,62,39ZM35,19H55V38H35ZM38,4h4v6H38ZM36,8v3a1,1,0,0,0,1,1h6a1,1,0,0,0,1-1V9.156L53.27,17h-18.9L23.73,8ZM9,18.464,21,8.31,33,18.464V38H26V25a1,1,0,0,0-1-1H17a1,1,0,0,0-1,1V38H9ZM24,38H18V26h6ZM22.139,51.048,15.485,48h7.071a3.922,3.922,0,0,0-.417,3.048Zm-.225,7.79-11.66-5.829A2.255,2.255,0,0,1,9,50.98v-.217A2.264,2.264,0,0,1,12.212,48.7l11.371,5.208A1,1,0,0,0,24,54H34a1,1,0,0,0,0-2H26a2,2,0,0,1,0-4h7.667a1,1,0,0,0,.478-.122l.256-.139A13.343,13.343,0,0,1,47,47.594V60H26.833A11.033,11.033,0,0,1,21.914,58.838ZM60,48V60H49V48ZM48.247,46a15.328,15.328,0,0,0-14.8-.018L26,46H11a7.011,7.011,0,0,1-6.929-6H59.929A7.011,7.011,0,0,1,53,46Z"/><rect x="51" y="56" width="2" height="2"/><path d="M50,24H40a1,1,0,0,0-1,1v6a1,1,0,0,0,1,1H50a1,1,0,0,0,1-1V25A1,1,0,0,0,50,24Zm-1,6H41V26h8Z"/></g></svg>
